bernoullicharts/exp_-x_alg_2__bound.svg

<?xml version="1.0" encoding="utf-8" standalone="no"?>
<!DOCTYPE svg PUBLIC "-//W3C//DTD SVG 1.1//EN"
  "http://www.w3.org/Graphics/SVG/1.1/DTD/svg11.dtd">
<!-- Created with matplotlib (https://matplotlib.org/) -->
<svg height="345.6pt" version="1.1" viewBox="0 0 460.8 345.6" width="460.8pt" xmlns="http://www.w3.org/2000/svg" xmlns:xlink="http://www.w3.org/1999/xlink">
 <defs>
  <style type="text/css">
*{stroke-linecap:butt;stroke-linejoin:round;}
  </style>
 </defs>
 <g id="figure_1">
  <g id="patch_1">
   <path d="M 0 345.6 
L 460.8 345.6 
L 460.8 0 
L 0 0 
z
" style="fill:#ffffff;"/>
  </g>
  <g id="axes_1">
   <g id="patch_2">
    <path d="M 57.6 307.584 
L 414.72 307.584 
L 414.72 41.472 
L 57.6 41.472 
z
" style="fill:#ffffff;"/>
   </g>
   <g id="matplotlib.axis_1">
    <g id="xtick_1">
     <g id="line2d_1">
      <defs>
       <path d="M 0 0 
L 0 3.5 
" id="m2219dd4634" style="stroke:#000000;stroke-width:0.8;"/>
      </defs>
      <g>
       <use style="stroke:#000000;stroke-width:0.8;" x="73.800255" xlink:href="#m2219dd4634" y="307.584"/>
      </g>
     </g>
     <g id="text_1">
      <text style="font-family:DejaVu Sans;font-size:10px;font-style:normal;font-weight:normal;text-anchor:middle;" transform="rotate(-0, 73.800255, 322.182437)" x="73.800255" y="322.182437">0.0</text>
     </g>
    </g>
    <g id="xtick_2">
     <g id="line2d_2">
      <g>
       <use style="stroke:#000000;stroke-width:0.8;" x="138.744153" xlink:href="#m2219dd4634" y="307.584"/>
      </g>
     </g>
     <g id="text_2">
      <text style="font-family:DejaVu Sans;font-size:10px;font-style:normal;font-weight:normal;text-anchor:middle;" transform="rotate(-0, 138.744153, 322.182437)" x="138.744153" y="322.182437">0.2</text>
     </g>
    </g>
    <g id="xtick_3">
     <g id="line2d_3">
      <g>
       <use style="stroke:#000000;stroke-width:0.8;" x="203.688051" xlink:href="#m2219dd4634" y="307.584"/>
      </g>
     </g>
     <g id="text_3">
      <text style="font-family:DejaVu Sans;font-size:10px;font-style:normal;font-weight:normal;text-anchor:middle;" transform="rotate(-0, 203.688051, 322.182437)" x="203.688051" y="322.182437">0.4</text>
     </g>
    </g>
    <g id="xtick_4">
     <g id="line2d_4">
      <g>
       <use style="stroke:#000000;stroke-width:0.8;" x="268.631949" xlink:href="#m2219dd4634" y="307.584"/>
      </g>
     </g>
     <g id="text_4">
      <text style="font-family:DejaVu Sans;font-size:10px;font-style:normal;font-weight:normal;text-anchor:middle;" transform="rotate(-0, 268.631949, 322.182437)" x="268.631949" y="322.182437">0.6</text>
     </g>
    </g>
    <g id="xtick_5">
     <g id="line2d_5">
      <g>
       <use style="stroke:#000000;stroke-width:0.8;" x="333.575847" xlink:href="#m2219dd4634" y="307.584"/>
      </g>
     </g>
     <g id="text_5">
      <text style="font-family:DejaVu Sans;font-size:10px;font-style:normal;font-weight:normal;text-anchor:middle;" transform="rotate(-0, 333.575847, 322.182437)" x="333.575847" y="322.182437">0.8</text>
     </g>
    </g>
    <g id="xtick_6">
     <g id="line2d_6">
      <g>
       <use style="stroke:#000000;stroke-width:0.8;" x="398.519745" xlink:href="#m2219dd4634" y="307.584"/>
      </g>
     </g>
     <g id="text_6">
      <text style="font-family:DejaVu Sans;font-size:10px;font-style:normal;font-weight:normal;text-anchor:middle;" transform="rotate(-0, 398.519745, 322.182437)" x="398.519745" y="322.182437">1.0</text>
     </g>
    </g>
    <g id="text_7">
     <text style="font-family:DejaVu Sans;font-size:10px;font-style:normal;font-weight:normal;text-anchor:middle;" transform="rotate(-0, 236.16, 335.860562)" x="236.16" y="335.860562">Input Coin's Heads Probability (λ)</text>
    </g>
   </g>
   <g id="matplotlib.axis_2">
    <g id="ytick_1">
     <g id="line2d_7">
      <defs>
       <path d="M 0 0 
L -3.5 0 
" id="mf5b0fcedf5" style="stroke:#000000;stroke-width:0.8;"/>
      </defs>
      <g>
       <use style="stroke:#000000;stroke-width:0.8;" x="57.6" xlink:href="#mf5b0fcedf5" y="295.488134"/>
      </g>
     </g>
     <g id="text_8">
      <text style="font-family:DejaVu Sans;font-size:10px;font-style:normal;font-weight:normal;text-anchor:end;" transform="rotate(-0, 50.6, 299.287353)" x="50.6" y="299.287353">0</text>
     </g>
    </g>
    <g id="ytick_2">
     <g id="line2d_8">
      <g>
       <use style="stroke:#000000;stroke-width:0.8;" x="57.6" xlink:href="#mf5b0fcedf5" y="249.309595"/>
      </g>
     </g>
     <g id="text_9">
      <text style="font-family:DejaVu Sans;font-size:10px;font-style:normal;font-weight:normal;text-anchor:end;" transform="rotate(-0, 50.6, 253.108813)" x="50.6" y="253.108813">20</text>
     </g>
    </g>
    <g id="ytick_3">
     <g id="line2d_9">
      <g>
       <use style="stroke:#000000;stroke-width:0.8;" x="57.6" xlink:href="#mf5b0fcedf5" y="203.131055"/>
      </g>
     </g>
     <g id="text_10">
      <text style="font-family:DejaVu Sans;font-size:10px;font-style:normal;font-weight:normal;text-anchor:end;" transform="rotate(-0, 50.6, 206.930274)" x="50.6" y="206.930274">40</text>
     </g>
    </g>
    <g id="ytick_4">
     <g id="line2d_10">
      <g>
       <use style="stroke:#000000;stroke-width:0.8;" x="57.6" xlink:href="#mf5b0fcedf5" y="156.952515"/>
      </g>
     </g>
     <g id="text_11">
      <text style="font-family:DejaVu Sans;font-size:10px;font-style:normal;font-weight:normal;text-anchor:end;" transform="rotate(-0, 50.6, 160.751734)" x="50.6" y="160.751734">60</text>
     </g>
    </g>
    <g id="ytick_5">
     <g id="line2d_11">
      <g>
       <use style="stroke:#000000;stroke-width:0.8;" x="57.6" xlink:href="#mf5b0fcedf5" y="110.773975"/>
      </g>
     </g>
     <g id="text_12">
      <text style="font-family:DejaVu Sans;font-size:10px;font-style:normal;font-weight:normal;text-anchor:end;" transform="rotate(-0, 50.6, 114.573194)" x="50.6" y="114.573194">80</text>
     </g>
    </g>
    <g id="ytick_6">
     <g id="line2d_12">
      <g>
       <use style="stroke:#000000;stroke-width:0.8;" x="57.6" xlink:href="#mf5b0fcedf5" y="64.595435"/>
      </g>
     </g>
     <g id="text_13">
      <text style="font-family:DejaVu Sans;font-size:10px;font-style:normal;font-weight:normal;text-anchor:end;" transform="rotate(-0, 50.6, 68.394654)" x="50.6" y="68.394654">100</text>
     </g>
    </g>
    <g id="text_14">
     <text style="font-family:DejaVu Sans;font-size:10px;font-style:normal;font-weight:normal;text-anchor:middle;" transform="rotate(-90, 25.432813, 174.528)" x="25.432813" y="174.528">Coin Flips Needed</text>
    </g>
   </g>
   <g id="line2d_13">
    <path clip-path="url(#paaf52605a3)" d="M 73.832727 293.179554 
L 77.112066 293.214391 
L 80.391405 293.248954 
L 83.670744 293.283245 
L 86.950083 293.317265 
L 90.229421 293.351015 
L 93.50876 293.384496 
L 96.788099 293.417709 
L 100.067438 293.450656 
L 103.346777 293.483338 
L 106.626116 293.515756 
L 109.905455 293.547911 
L 113.184793 293.579805 
L 116.464132 293.611438 
L 119.743471 293.642812 
L 123.02281 293.673928 
L 126.302149 293.704787 
L 129.581488 293.735391 
L 132.860826 293.76574 
L 136.140165 293.795836 
L 139.419504 293.825679 
L 142.698843 293.855272 
L 145.978182 293.884616 
L 149.257521 293.913711 
L 152.53686 293.942558 
L 155.816198 293.97116 
L 159.095537 293.999517 
L 162.374876 294.02763 
L 165.654215 294.0555 
L 168.933554 294.08313 
L 172.212893 294.110519 
L 175.492231 294.137669 
L 178.77157 294.164582 
L 182.050909 294.191259 
L 185.330248 294.217699 
L 188.609587 294.243906 
L 191.888926 294.26988 
L 195.168264 294.295623 
L 198.447603 294.321134 
L 201.726942 294.346417 
L 205.006281 294.371471 
L 208.28562 294.396298 
L 211.564959 294.4209 
L 214.844298 294.445277 
L 218.123636 294.469431 
L 221.402975 294.493362 
L 224.682314 294.517072 
L 227.961653 294.540563 
L 231.240992 294.563835 
L 234.520331 294.586889 
L 237.799669 294.609727 
L 241.079008 294.63235 
L 244.358347 294.654759 
L 247.637686 294.676955 
L 250.917025 294.69894 
L 254.196364 294.720714 
L 257.475702 294.74228 
L 260.755041 294.763637 
L 264.03438 294.784787 
L 267.313719 294.805731 
L 270.593058 294.826471 
L 273.872397 294.847007 
L 277.151736 294.867341 
L 280.431074 294.887475 
L 283.710413 294.907408 
L 286.989752 294.927142 
L 290.269091 294.946679 
L 293.54843 294.966019 
L 296.827769 294.985165 
L 300.107107 295.004116 
L 303.386446 295.022874 
L 306.665785 295.04144 
L 309.945124 295.059815 
L 313.224463 295.078001 
L 316.503802 295.095999 
L 319.78314 295.113809 
L 323.062479 295.131433 
L 326.341818 295.148872 
L 329.621157 295.166127 
L 332.900496 295.1832 
L 336.179835 295.200091 
L 339.459174 295.216801 
L 342.738512 295.233333 
L 346.017851 295.249685 
L 349.29719 295.265861 
L 352.576529 295.281861 
L 355.855868 295.297686 
L 359.135207 295.313337 
L 362.414545 295.328816 
L 365.693884 295.344123 
L 368.973223 295.359259 
L 372.252562 295.374227 
L 375.531901 295.389026 
L 378.81124 295.403657 
L 382.090579 295.418123 
L 385.369917 295.432424 
L 388.649256 295.446561 
L 391.928595 295.460535 
L 395.207934 295.474348 
L 398.487273 295.488 
" style="fill:none;stroke:#1f77b4;stroke-linecap:square;stroke-width:1.5;"/>
   </g>
   <g id="line2d_14">
    <path clip-path="url(#paaf52605a3)" d="M 73.832727 293.179207 
L 77.112066 293.137647 
L 80.391405 293.133029 
L 83.670744 293.105322 
L 86.950083 293.082232 
L 90.229421 293.114557 
L 93.50876 293.063761 
L 96.788099 292.943697 
L 100.067438 292.994493 
L 103.346777 292.948315 
L 106.626116 292.911372 
L 109.905455 292.929843 
L 113.184793 292.791308 
L 116.464132 292.819015 
L 119.743471 292.763601 
L 123.02281 292.78669 
L 126.302149 292.754365 
L 129.581488 292.675861 
L 132.860826 292.629683 
L 136.140165 292.625065 
L 139.419504 292.698951 
L 142.698843 292.541944 
L 145.978182 292.560415 
L 149.257521 292.412644 
L 152.53686 292.505001 
L 155.816198 292.39879 
L 159.095537 292.495765 
L 162.374876 292.33414 
L 165.654215 292.292579 
L 168.933554 292.412644 
L 172.212893 292.080158 
L 175.492231 292.07554 
L 178.77157 292.070922 
L 182.050909 291.913915 
L 185.330248 291.876973 
L 188.609587 291.941623 
L 191.888926 291.858501 
L 195.168264 291.659933 
L 198.447603 291.609137 
L 201.726942 291.58143 
L 205.006281 291.752291 
L 208.28562 291.659933 
L 211.564959 291.756908 
L 214.844298 291.308977 
L 218.123636 291.188912 
L 221.402975 291.082702 
L 224.682314 291.110409 
L 227.961653 291.216619 
L 231.240992 291.036523 
L 234.520331 291.184294 
L 237.799669 290.930313 
L 241.079008 290.74098 
L 244.358347 290.57012 
L 247.637686 290.31152 
L 250.917025 290.399259 
L 254.196364 290.667095 
L 257.475702 290.029831 
L 260.755041 290.168367 
L 264.03438 289.75276 
L 267.313719 289.822028 
L 270.593058 289.544956 
L 273.872397 289.812792 
L 277.151736 289.540338 
L 280.431074 288.972342 
L 283.710413 288.944635 
L 286.989752 288.87075 
L 290.269091 288.09495 
L 293.54843 288.399729 
L 296.827769 287.901 
L 300.107107 288.071861 
L 303.386446 287.96565 
L 306.665785 287.309915 
L 309.945124 287.074404 
L 313.224463 286.063094 
L 316.503802 286.150834 
L 319.78314 285.670577 
L 323.062479 285.439684 
L 326.341818 285.301148 
L 329.621157 285.051784 
L 332.900496 284.830127 
L 336.179835 282.47964 
L 339.459174 283.569453 
L 342.738512 282.313397 
L 346.017851 280.88648 
L 349.29719 279.200963 
L 352.576529 279.150167 
L 355.855868 277.640129 
L 359.135207 275.977701 
L 362.414545 274.213681 
L 365.693884 274.088999 
L 368.973223 270.70873 
L 372.252562 269.11557 
L 375.531901 262.401211 
L 378.81124 260.152316 
L 382.090579 248.076628 
L 385.369917 241.860996 
L 388.649256 219.21504 
L 391.928595 187.836722 
L 395.207934 53.568 
" style="fill:none;stroke:#ff7f0e;stroke-linecap:square;stroke-width:1.5;"/>
   </g>
   <g id="patch_3">
    <path d="M 57.6 307.584 
L 57.6 41.472 
" style="fill:none;stroke:#000000;stroke-linecap:square;stroke-linejoin:miter;stroke-width:0.8;"/>
   </g>
   <g id="patch_4">
    <path d="M 414.72 307.584 
L 414.72 41.472 
" style="fill:none;stroke:#000000;stroke-linecap:square;stroke-linejoin:miter;stroke-width:0.8;"/>
   </g>
   <g id="patch_5">
    <path d="M 57.6 307.584 
L 414.72 307.584 
" style="fill:none;stroke:#000000;stroke-linecap:square;stroke-linejoin:miter;stroke-width:0.8;"/>
   </g>
   <g id="patch_6">
    <path d="M 57.6 41.472 
L 414.72 41.472 
" style="fill:none;stroke:#000000;stroke-linecap:square;stroke-linejoin:miter;stroke-width:0.8;"/>
   </g>
   <g id="text_15">
    <text style="font-family:DejaVu Sans;font-size:12px;font-style:normal;font-weight:normal;text-anchor:middle;" transform="rotate(-0, 236.16, 35.472)" x="236.16" y="35.472">Coin Flips for exp(-x)</text>
   </g>
   <g id="legend_1">
    <g id="patch_7">
     <path d="M 64.6 78.82825 
L 267.007812 78.82825 
Q 269.007812 78.82825 269.007812 76.82825 
L 269.007812 48.472 
Q 269.007812 46.472 267.007812 46.472 
L 64.6 46.472 
Q 62.6 46.472 62.6 48.472 
L 62.6 76.82825 
Q 62.6 78.82825 64.6 78.82825 
z
" style="fill:#ffffff;opacity:0.8;stroke:#cccccc;stroke-linejoin:miter;"/>
    </g>
    <g id="line2d_15">
     <path d="M 66.6 54.570437 
L 86.6 54.570437 
" style="fill:none;stroke:#1f77b4;stroke-linecap:square;stroke-width:1.5;"/>
    </g>
    <g id="line2d_16"/>
    <g id="text_16">
     <text style="font-family:DejaVu Sans;font-size:10px;font-style:normal;font-weight:normal;text-anchor:start;" transform="rotate(-0, 94.6, 58.070437)" x="94.6" y="58.070437">Coin Flip Lower Bound (Mendo)</text>
    </g>
    <g id="line2d_17">
     <path d="M 66.6 69.248562 
L 86.6 69.248562 
" style="fill:none;stroke:#ff7f0e;stroke-linecap:square;stroke-width:1.5;"/>
    </g>
    <g id="line2d_18"/>
    <g id="text_17">
     <text style="font-family:DejaVu Sans;font-size:10px;font-style:normal;font-weight:normal;text-anchor:start;" transform="rotate(-0, 94.6, 72.748562)" x="94.6" y="72.748562">Avg. Coins Flipped exp(-x) (Alg. 2)</text>
    </g>
   </g>
  </g>
 </g>
 <defs>
  <clipPath id="paaf52605a3">
   <rect height="266.112" width="357.12" x="57.6" y="41.472"/>
  </clipPath>
 </defs>
</svg>

<svg height="460.8" viewBox="0 0 460.8 345.6" width="614.4" xmlns="http://www.w3.org/2000/svg" xmlns:xlink="http://www.w3.org/1999/xlink"><defs><style>*{stroke-linecap:butt;stroke-linejoin:round}</style></defs><g id="figure_1"><path d="M0 345.6h460.8V0H0z" fill="#fff" id="patch_1"/><g id="axes_1"><path d="M57.6 307.584h357.12V41.472H57.6z" fill="#fff" id="patch_2"/><g id="matplotlib.axis_1"><g id="xtick_1"><g id="line2d_1"><defs><path d="M0 0v3.5" id="m2219dd4634" stroke="#000" stroke-width=".8"/></defs><use x="73.8" xlink:href="#m2219dd4634" y="307.584" stroke="#000" stroke-width=".8"/></g><text x="73.8" y="322.182" font-family="DejaVu Sans" font-size="10" font-weight="400" text-anchor="middle" id="text_1">0.0</text></g><g id="xtick_2"><use x="138.744" xlink:href="#m2219dd4634" y="307.584" stroke="#000" stroke-width=".8" id="line2d_2"/><text x="138.744" y="322.182" font-family="DejaVu Sans" font-size="10" font-weight="400" text-anchor="middle" id="text_2">0.2</text></g><g id="xtick_3"><use x="203.688" xlink:href="#m2219dd4634" y="307.584" stroke="#000" stroke-width=".8" id="line2d_3"/><text x="203.688" y="322.182" font-family="DejaVu Sans" font-size="10" font-weight="400" text-anchor="middle" id="text_3">0.4</text></g><g id="xtick_4"><use x="268.632" xlink:href="#m2219dd4634" y="307.584" stroke="#000" stroke-width=".8" id="line2d_4"/><text x="268.632" y="322.182" font-family="DejaVu Sans" font-size="10" font-weight="400" text-anchor="middle" id="text_4">0.6</text></g><g id="xtick_5"><use x="333.576" xlink:href="#m2219dd4634" y="307.584" stroke="#000" stroke-width=".8" id="line2d_5"/><text x="333.576" y="322.182" font-family="DejaVu Sans" font-size="10" font-weight="400" text-anchor="middle" id="text_5">0.8</text></g><g id="xtick_6"><use x="398.52" xlink:href="#m2219dd4634" y="307.584" stroke="#000" stroke-width=".8" id="line2d_6"/><text x="398.52" y="322.182" font-family="DejaVu Sans" font-size="10" font-weight="400" text-anchor="middle" id="text_6">1.0</text></g><text x="236.16" y="335.861" font-family="DejaVu Sans" font-size="10" font-weight="400" text-anchor="middle" id="text_7">Input Coin&apos;s Heads Probability (λ)</text></g><g id="matplotlib.axis_2"><g id="ytick_1"><g id="line2d_7"><defs><path d="M0 0h-3.5" id="mf5b0fcedf5" stroke="#000" stroke-width=".8"/></defs><use x="57.6" xlink:href="#mf5b0fcedf5" y="295.488" stroke="#000" stroke-width=".8"/></g><text x="50.6" y="299.287" font-family="DejaVu Sans" font-size="10" font-weight="400" text-anchor="end" id="text_8">0</text></g><g id="ytick_2"><use x="57.6" xlink:href="#mf5b0fcedf5" y="249.31" stroke="#000" stroke-width=".8" id="line2d_8"/><text x="50.6" y="253.109" font-family="DejaVu Sans" font-size="10" font-weight="400" text-anchor="end" id="text_9">20</text></g><g id="ytick_3"><use x="57.6" xlink:href="#mf5b0fcedf5" y="203.131" stroke="#000" stroke-width=".8" id="line2d_9"/><text x="50.6" y="206.93" font-family="DejaVu Sans" font-size="10" font-weight="400" text-anchor="end" id="text_10">40</text></g><g id="ytick_4"><use x="57.6" xlink:href="#mf5b0fcedf5" y="156.953" stroke="#000" stroke-width=".8" id="line2d_10"/><text x="50.6" y="160.752" font-family="DejaVu Sans" font-size="10" font-weight="400" text-anchor="end" id="text_11">60</text></g><g id="ytick_5"><use x="57.6" xlink:href="#mf5b0fcedf5" y="110.774" stroke="#000" stroke-width=".8" id="line2d_11"/><text x="50.6" y="114.573" font-family="DejaVu Sans" font-size="10" font-weight="400" text-anchor="end" id="text_12">80</text></g><g id="ytick_6"><use x="57.6" xlink:href="#mf5b0fcedf5" y="64.595" stroke="#000" stroke-width=".8" id="line2d_12"/><text x="50.6" y="68.395" font-family="DejaVu Sans" font-size="10" font-weight="400" text-anchor="end" id="text_13">100</text></g><text transform="rotate(-90 25.433 174.528)" x="25.433" y="174.528" font-family="DejaVu Sans" font-size="10" font-weight="400" text-anchor="middle" id="text_14">Coin Flips Needed</text></g><path clip-path="url(#paaf52605a3)" d="M73.833 293.18l3.28.034 3.278.035 3.28.034 3.28.034 3.278.034 3.28.033 3.28.034 3.278.033 3.28.032 3.28.033 3.278.032 3.28.032 3.28.031 3.278.032 3.28.03 3.28.032 3.278.03 3.28.03 3.28.03 3.279.03 3.279.03 3.28.03 3.279.029 3.279.029 3.28.028 3.279.029 3.279.028 3.28.027 3.279.028 3.279.028 3.28.027 3.279.027 3.279.026 3.28.027 3.279.026 3.279.026 3.28.026 3.279.025 3.279.025 3.28.025 3.279.025 3.279.025 3.28.024 3.279.024 3.279.024 3.28.024 3.279.024 3.279.023 3.28.023 3.279.023 3.279.022 3.28.023 3.279.022 3.279.022 3.28.022 3.279.021 3.279.022 3.28.02 3.279.022 3.28.02 3.278.021 3.28.02 3.28.02 3.278.02 3.28.02 3.28.02 3.278.019 3.28.02 3.28.018 3.278.019 3.28.018 3.28.019 3.278.018 3.28.018 3.28.018 3.278.017 3.28.018 3.28.017 3.278.017 3.28.017 3.28.017 3.279.016 3.279.017 3.28.016 3.279.016 3.279.016 3.28.015 3.279.016 3.279.015 3.28.015 3.279.015 3.279.015 3.28.015 3.279.014 3.279.014 3.28.015 3.279.014 3.279.013 3.28.014" fill="none" stroke="#1f77b4" stroke-linecap="square" stroke-width="1.5" id="line2d_13"/><path clip-path="url(#paaf52605a3)" d="M73.833 293.18l3.28-.042 3.278-.005 3.28-.028 3.28-.023 3.278.033 3.28-.051 3.28-.12 3.278.05 3.28-.046 3.28-.037 3.278.019 3.28-.139 3.28.028 3.278-.055 3.28.023 3.28-.033 3.278-.078 3.28-.046 3.28-.005 3.279.074 3.279-.157 3.28.018 3.279-.147 3.279.092 3.28-.106 3.279.097 3.279-.162 3.28-.041 3.279.12 3.279-.333 3.28-.004 3.279-.005 3.279-.157 3.28-.037 3.279.065 3.279-.083 3.28-.2 3.279-.05 3.279-.028 3.28.171 3.279-.092 3.279.097 3.28-.448 3.279-.12 3.279-.106 3.28.027 3.279.107 3.279-.18 3.28.147 3.279-.254 3.279-.189 3.28-.17 3.279-.26 3.279.088 3.28.268 3.279-.637 3.279.138 3.28-.415 3.279.069 3.28-.277 3.278.268 3.28-.273 3.28-.568 3.278-.027 3.28-.074 3.28-.776 3.278.305 3.28-.499 3.28.17 3.278-.105 3.28-.656 3.28-.236 3.278-1.01 3.28.087 3.28-.48 3.278-.231 3.28-.139 3.28-.25 3.278-.22 3.28-2.351 3.28 1.09 3.279-1.257 3.279-1.427 3.28-1.685 3.279-.05 3.279-1.51 3.28-1.663 3.279-1.764 3.279-.125 3.28-3.38 3.279-1.593 3.279-6.715 3.28-2.249 3.279-12.075 3.279-6.216 3.28-22.646 3.279-31.378 3.279-134.269" fill="none" stroke="#ff7f0e" stroke-linecap="square" stroke-width="1.5" id="line2d_14"/><path d="M57.6 307.584V41.472" fill="none" stroke="#000" stroke-linecap="square" stroke-width=".8" id="patch_3"/><path d="M414.72 307.584V41.472" fill="none" stroke="#000" stroke-linecap="square" stroke-width=".8" id="patch_4"/><path d="M57.6 307.584h357.12" fill="none" stroke="#000" stroke-linecap="square" stroke-width=".8" id="patch_5"/><path d="M57.6 41.472h357.12" fill="none" stroke="#000" stroke-linecap="square" stroke-width=".8" id="patch_6"/><text x="236.16" y="35.472" font-family="DejaVu Sans" font-size="12" font-weight="400" text-anchor="middle" id="text_15">Coin Flips for exp(-x)</text><g id="legend_1"><path d="M64.6 78.828h202.408q2 0 2-2V48.472q0-2-2-2H64.6q-2 0-2 2v28.356q0 2 2 2z" fill="#fff" opacity=".8" stroke="#ccc" id="patch_7"/><path d="M66.6 54.57h20" fill="none" stroke="#1f77b4" stroke-linecap="square" stroke-width="1.5" id="line2d_15"/><text x="94.6" y="58.07" font-family="DejaVu Sans" font-size="10" font-weight="400" id="text_16">Coin Flip Lower Bound (Mendo)</text><path d="M66.6 69.249h20" fill="none" stroke="#ff7f0e" stroke-linecap="square" stroke-width="1.5" id="line2d_17"/><text x="94.6" y="72.749" font-family="DejaVu Sans" font-size="10" font-weight="400" id="text_17">Avg. Coins Flipped exp(-x) (Alg. 2)</text></g></g></g><defs><clipPath id="paaf52605a3"><path d="M57.6 41.472h357.12v266.112H57.6z"/></clipPath></defs></svg>
